**kern	**kern	**dynam
*part1	*part1	*part1
*staff2	*staff1	*
*I"Piano	*	*
*clefF4	*clefG2	*
*k[f#c#g#d#]	*k[f#c#g#d#]	*
=1	=1	=1
*^	*	*
4.E 4.An 4.c#	4r	2.e	.
.	8AAA 8AA	.	.
!	!	!	!LO:DY:a
4.E 4.A 4.c#	4r	.	<
.	8AAA 8AA	.	.
=	=	=	=
4.E 4.A 4.cn	4r	2.e	.
.	8AAA	.	.
4.E 4.A 4.c	4r	.	[
.	8AA	.	.
=	=	=	=
!	!	!LO:TX:b:i:t=cresc.	!
4.E 4.G# 4.B	4r	(2.e	.
.	8EE	.	.
4.E 4.G# 4.B	4r	.	.
.	8EE	.	.
*v	*v	*	*
=	=	=
*	*^	*
4rGG	4.c# 4.e	4.E< 4.G#<	.
8CC# 8GG# 8C#	.	.	.
4rGG	4.c# 4.e	4.E< 4.G#<	ff
8CC# 8GG# 8C#	.	.	.
*	*v	*v	*
=	=	=
*^	*	*
4.E 4.F# 4.A#X 4.c#	4r	2.e	.
.	8FF# 8C#	.	.
4.E 4.F# 4.A# 4.c#	4r	.	.
.	8FF# 8C#	.	.
*v	*v	*	*
=	=	=
*	*^	*
4r	2.f#)	4.A#X 4.c# 4.e	.
8FF# 8C#	.	.	.
4r	.	4.A# 4.c# 4.e	.
8FF# 8C#	.	.	.
=	=	=	=
4r	2.g#	4.G# 4.B 4.e	.
8BBB 8BB	.	.	.
4r	.	4.G# 4.B 4.e	.
8BB	.	.	.
*	*v	*v	*
=	=	=
4r	4.G# 4.B 4.e 4.g#	.
8BBB 8BB	.	.
4r	4.G# 4.B 4.e 4.g#	.
8BB	.	.
=	=	=
*^	*	*
4.An 4.B 4.d#	4r	[2.a	.
.	8BBB	.	.
!	!	!	!LO:DY:a
4.A 4.B 4.d#	4r	.	<
.	8FF#	.	.
*v	*v	*	*
=	=	=
*-	*-	*-
!!!system-decoration: {(s1,s2)}
!!!RDF**kern: < = below
